X:6/8
T:Shorabc harcc ive in the Willes
T:Hurl Hurlig.
Z:id:hn-jig-26
M:6/8
K:Ador
~E3 cBc|d2B B2


*****************************


13100 2 1.5379022 

<stark etho:Tipin'sip p?rig in Busle
T:S'aurron's felloyan: Scy'eon Scol
Z:id:hn-jig-67
M:6/8
K:D
DAB|GBG


*****************************


13200 2 1.06419 

<starton cavex Iuls an (16818(3)
D:Patrick Brwawale
D:Te Ravins Ofony
D:Sama Maschallar
Z:id:hn-jig-86
M:


*****************************


13300 2 1.331205 

<starth
cAG|eAA eAA|-d3 def|gfe dAF:|
|:~G3 ~B3|ded faf|1 dBG G2E:|2 gfg gag|fed cAF|~D3 EFG|~A3 d2c|dec 


*****************************


13400 2 0.71320426 

<startof.
dcd|GEG cBc|1 dcB ~A3:|2Bcd edd|cAA bcA|BGG ABc|FDDG GAF|D2D E3:|
|:A2d e2f|efe afg|fee fed|eGB


*****************************


13500 2 1.1245617 

<starth
AGF GB|c2A eAg|F2A B2B:|
|:fde f2a|afd d2e|fdf ag=f|~a3 gfe|1 efe d2e:|2 fdc d2F||
<end>
<start>



*****************************


13600 2 1.4925437 

<start>
